icons/parking-garage-11.svg

<?xml version="1.0" encoding="utf-8"?>
<!-- Generator: Adobe Illustrator 19.2.1, SVG Export Plug-In . SVG Version: 6.00 Build 0)  -->
<!DOCTYPE svg PUBLIC "-//W3C//DTD SVG 1.1//EN" "http://www.w3.org/Graphics/SVG/1.1/DTD/svg11.dtd">
<svg version="1.1" id="Layer_1" xmlns="http://www.w3.org/2000/svg" xmlns:xlink="http://www.w3.org/1999/xlink" x="0px" y="0px"
	 width="11px" height="11px" viewBox="0 0 11 11" style="enable-background:new 0 0 11 11;" xml:space="preserve">
<path d="M7.25,7.44C6.8067,7.7602,6.2657,7.9158,5.72,7.88H4.45V10H3.19V4H5.8c0.5201-0.0279,1.0324,0.1358,1.44,0.46
	c0.3847,0.372,0.5828,0.8966,0.54,1.43C7.8557,6.4611,7.6596,7.0348,7.25,7.44z M6.25,5.28c-0.1946-0.1475-0.4365-0.2186-0.68-0.2
	H4.45v1.76H5.6c0.246,0.0129,0.4882-0.0654,0.68-0.22c0.1746-0.1813,0.2621-0.4293,0.24-0.68c0.023-0.2449-0.0651-0.4871-0.24-0.66
	L6.25,5.28z M10.41,3.28c0.1349-0.2403,0.0499-0.5444-0.19-0.68l-4.5-2.5c-0.1521-0.0855-0.3379-0.0855-0.49,0l-4.5,2.5
	C0.4972,2.7485,0.4288,3.0576,0.5773,3.2904C0.7144,3.5054,0.9913,3.5828,1.22,3.47l4.28-2.4l4.26,2.37
	c0.2421,0.1328,0.546,0.0442,0.6789-0.1979C10.4392,3.2414,10.4396,3.2407,10.44,3.24L10.41,3.28z"/>
</svg>

<svg id="Layer_1" data-name="Layer 1" xmlns="http://www.w3.org/2000/svg" width="11" height="11" viewBox="0 0 11 11">
  <title>parking-garage-11</title>
  <path d="M7.25,7.44a2.35,2.35,0,0,1-1.53.44H4.45V10H3.19V4H5.8a2.13,2.13,0,0,1,1.44.46,1.79,1.79,0,0,1,.54,1.43A1.84,1.84,0,0,1,7.25,7.44Zm-1-2.16a1,1,0,0,0-.68-0.2H4.45V6.84H5.6a1,1,0,0,0,.68-0.22,0.87,0.87,0,0,0,.24-0.68A0.82,0.82,0,0,0,6.28,5.28Zm4.16-2a0.5,0.5,0,0,0-.19-0.68l-4.5-2.5a0.5,0.5,0,0,0-.49,0l-4.5,2.5a0.5,0.5,0,0,0,.49.87L5.5,1.07,9.76,3.44A0.5,0.5,0,0,0,10.44,3.24Z"/>
</svg>
